X:16
T:Paddy the Dandy     Jig     Allan's #16
C:Trad/Anon
B:Allan's Irish Fiddler (pub. Mozart Allen,  Glascow) date unknown
Z:FROM ALLAN'S TO NOTEWORTHY, FROM NOTEWORTHY TO ABC, MIDI AND .TXT BY VINCE
BRENNAN Dec. 2002 (HTTP://WWW.SOSYOURMOM.COM)
I:abc2nwc
M:6/8
L:1/8
K:A
F|EAA cBA|eAA cBA|aga ecA|Bdc BAF|
EAA cBA|eAA cBA|aga ecA|BAG A2:|
|:c|eaa c'aa|{c'}bab c'aa|eaa c'aa|bc'b bag|
eaa c'aa|{c'}bab c'ae|fga ecA|BAG A2:|
